modules/stroke-7/icons/back-2.svg

<?xml version="1.0" encoding="utf-8"?>
<!-- Generated by IcoMoon.io -->
<!DOCTYPE svg PUBLIC "-//W3C//DTD SVG 1.1//EN" "http://www.w3.org/Graphics/SVG/1.1/DTD/svg11.dtd">
<svg version="1.1" xmlns="http://www.w3.org/2000/svg" xmlns:xlink="http://www.w3.org/1999/xlink" width="30" height="32" viewBox="0 0 30 32">
<g id="icomoon-ignore">
</g>
<path d="M5.333 12.533v17.707h24.533v-24.533h-19.2v-4l-10.667 7.253 5.333 3.573zM9.6 5.76c0 0 0 0.053 0 0v0 1.067h1.013c0 0 0 0 0.053 0 0 0 0.053 0 0.053 0h0.053c5.013 0 8.32 2.773 9.76 6.293-3.040-2.56-6.987-2.88-8.907-2.88-0.053 0-0.053 0-0.107 0h-1.92v1.067c0 0 0 0 0 0v2.827l-7.68-5.173 7.68-5.227v2.027zM6.4 13.28l4.267 2.88v-4.8c0.213 0 0.533-0.053 0.96-0.053 2.667 0 8.373 0.693 10.773 6.133 0-4.48-2.293-8.693-6.56-10.613h12.96v22.4h-22.4v-15.947z" fill="#000000"></path>
</svg>

<svg xmlns="http://www.w3.org/2000/svg" width="30" height="32"><path d="M5.333 12.533V30.24h24.533V5.707h-19.2v-4L-.001 8.96l5.333 3.573zM9.6 5.76s0 .053 0 0v1.067H10.772c5.013 0 8.32 2.773 9.76 6.293-3.04-2.56-6.987-2.88-8.907-2.88H9.598v3.894l-7.68-5.173 7.68-5.227v2.027zm-3.2 7.52l4.267 2.88v-4.8c.213 0 .533-.053.96-.053 2.667 0 8.373.693 10.773 6.133 0-4.48-2.293-8.693-6.56-10.613H28.8v22.4H6.4V13.28z"/></svg>
